!!!COM: Olivier (Eugène Prosper Charles) Messiaen
!!!OTL: [T764_Mes-w22p111m1-10]
**kern	**dynam	**kern	**dynam	**kern	**dynam	**kern	**dynam	**kern	**dynam
*grp:A	*	*grp:A	*	*grp:A	*	*grp:B	*	*grp:B	*
*part5	*part5	*part4	*part4	*part3	*part3	*part2	*part2	*part1	*part1
*staff5	*	*staff4	*	*staff3	*	*staff2	*	*staff1	*
*I"Vibraphone	*	*I"Susp. Cymbal	*	*I"Wood Block	*	*I"Bassoon 1.	*	*I"Piccolo	*
*I'Vib.	*	*I'S.Cymb.	*	*I'W.B.	*	*I'1.Bsn.	*	*I'Picc.	*
*ICidio	*	*ICidio	*	*ICidio	*	*ICww	*	*ICww	*
*Ivibra	*	*Icymba	*	*Iwbloc	*	*Ifagot	*	*Ipicco	*
*clefG2	*	*clefX	*	*clefX	*	*clefF4	*	*clefG2	*
*	*	*	*	*	*	*	*	*ITrd-7c-12	*
*k[]	*	*k[]	*	*k[]	*	*k[]	*	*k[]	*
*C:	*	*C:	*	*C:	*	*C:	*	*C:	*
*M3/4	*	*M3/4	*	*M3/4	*	*M3/4	*	*M3/4	*
=1	=1	=1	=1	=1	=1	=1	=1	=1	=1
!	!	!	!	!	!	!	!	!LO:TX:t=[[quarter]=66]	!
!LO:TX:a:t=(sonne à l' 8ve signé) tenu et vibré	!	!	!	!	!	!LO:TX:a:t=Solo	!	!LO:TX:a:t=Solo	!
[2.d#X [2.dn [2.e	4ryy	[2.Rcc\	4ryy	4%3r	.	16ryy	4ryy	16ryy	4ryy
.	.	.	.	.	.	16ryy	.	16ryy	.
.	.	.	.	.	.	16ryy	.	16ryy	.
.	.	.	.	.	.	16ryy	.	16ryy	.
.	.	.	.	.	.	16ryy	.	16ryy	.
.	.	.	.	.	.	16ryy	.	16ryy	.
.	.	.	.	.	.	16ryy	.	16ryy	.
.	.	.	.	.	.	16ryy	.	16ryy	.
.	.	.	.	.	.	16ryy	.	16ryy	.
.	.	.	.	.	.	16ryy	.	16ryy	.
.	.	.	.	.	.	16ryy	.	16ryy	.
.	.	.	.	.	.	16ryy	.	16ryy	.
=2	=2	=2	=2	=2	=2	=2	=2	=2	=2
4d#X_ 4dnX_ 4e_	.	4Rcc\_	.	4%3r	.	16ryy	.	16ryy	.
.	.	.	.	.	.	16ryy	.	16ryy	.
.	.	.	.	.	.	16ryy	.	16ryy	.
.	.	.	.	.	.	16ryy	.	16ryy	.
16d#KL] 16d] 16e]	.	16Rcc\KL]	.	.	.	16ryy	.	16ryy	.
[8.d#J [8.d [8.e	.	[8.Rcc\J	.	.	.	8ryy	.	8ryy	.
.	.	.	.	.	.	16ryy	.	16ryy	.
4d#_ 4d_ 4e_	.	4Rcc\_	.	.	.	16ryy	.	16ryy	.
.	.	.	.	.	.	16ryy	.	16ryy	.
.	.	.	.	.	.	16ryy	.	16ryy	.
.	.	.	.	.	.	16ryy	.	16ryy	.
=3	=3	=3	=3	=3	=3	=3	=3	=3	=3
2d#X_ 2dnX_ 2e_	.	2Rcc\_	.	4%3r	.	16ryy	.	16ryy	.
.	.	.	.	.	.	16ryy	.	16ryy	.
.	.	.	.	.	.	16ryy	.	16ryy	.
.	.	.	.	.	.	16ryy	.	16ryy	.
.	.	.	.	.	.	16ryy	.	16ryy	.
.	.	.	.	.	.	16ryy	.	16ryy	.
.	.	.	.	.	.	16ryy	.	16ryy	.
.	.	.	.	.	.	16ryy	.	16ryy	.
16d#KL] 16d] 16e]	.	16Rcc\KL]	.	.	.	16ryy	.	16ryy	.
[8.d#J [8.d [8.e	.	[8.Rcc\J	.	.	.	16ryy	.	16ryy	.
.	.	.	.	.	.	16ryy	.	16ryy	.
.	.	.	.	.	.	16ryy	.	16ryy	.
=4	=4	=4	=4	=4	=4	=4	=4	=4	=4
2.d#X] 2.dnX] 2.e]	.	2.Rcc\]	.	4%3r	.	16ryy	.	16ryy	.
.	.	.	.	.	.	16ryy	.	16ryy	.
.	.	.	.	.	.	16ryy	.	16ryy	.
.	.	.	.	.	.	16ryy	.	16ryy	.
.	.	.	.	.	.	16ryy	.	16ryy	.
.	.	.	.	.	.	16ryy	.	16ryy	.
.	.	.	.	.	.	8ryy	.	8ryy	.
.	.	.	.	.	.	16ryy	.	16ryy	.
.	.	.	.	.	.	16ryy	.	16ryy	.
.	.	.	.	.	.	16ryy	.	16ryy	.
.	.	.	.	.	.	16ryy	.	16ryy	.
=5	=5	=5	=5	=5	=5	=5	=5	=5	=5
[2.d#X [2.dn [2.e	.	[2.Rcc\	.	4r	.	8ryy	.	8ryy	.
.	.	.	.	.	.	16ryy	.	16ryy	.
.	.	.	.	.	.	16ryy	.	16ryy	.
.	.	.	.	4Rcc\	4ryy	16ryy	.	16ryy	.
.	.	.	.	.	.	16ryy	.	16ryy	.
.	.	.	.	.	.	16ryy	.	16ryy	.
.	.	.	.	.	.	16ryy	.	16ryy	.
.	.	.	.	4Rcc\	.	8ryy	.	8ryy	.
.	.	.	.	.	.	16ryy	.	16ryy	.
.	.	.	.	.	.	16ryy	.	16ryy	.
=6	=6	=6	=6	=6	=6	=6	=6	=6	=6
8d#XL] 8dnX] 8e]	.	8Rcc\L]	.	4Rcc\	.	16ryy	.	16ryy	.
.	.	.	.	.	.	16ryy	.	16ryy	.
[8d#XJ [8dn [8e	.	[8Rcc\J	.	.	.	8ryy	.	8ryy	.
2d#_ 2d_ 2e_	.	2Rcc\_	.	8Rcc\L	.	16ryy	.	16ryy	.
.	.	.	.	.	.	16ryy	.	16ryy	.
.	.	.	.	[8Rcc\J	.	16ryy	.	16ryy	.
.	.	.	.	.	.	16ryy	.	16ryy	.
.	.	.	.	16Rcc\KL]	.	16ryy	.	16ryy	.
.	.	.	.	8Rcc\	.	16ryy	.	16ryy	.
.	.	.	.	.	.	16ryy	.	16ryy	.
.	.	.	.	[16Rcc\Jk	.	16ryy	.	16ryy	.
=7	=7	=7	=7	=7	=7	=7	=7	=7	=7
8.d#XL] 8.dnX] 8.e]	.	8.Rcc\L]	.	16Rcc\KL]	.	16ryy	.	16ryy	.
.	.	.	.	8Rcc\	.	16ryy	.	16ryy	.
.	.	.	.	.	.	8ryy	.	8ryy	.
[16g#XJk [16an [16b-X	.	[16Rcc\Jk	.	[16Rcc\Jk	.	.	.	.	.
!	!	!	!	!	!	!LO:TX:b:i:t=stacc.	!	!LO:TX:b:i:t=stacc.	!
2g#_ 2a_ 2b-_	.	2Rcc\_	.	16Rcc\KL]	.	16ryy	.	16ryy	.
.	.	.	.	8.Rcc\J	.	16ryy	.	16ryy	.
.	.	.	.	.	.	16ryy	.	16ryy	.
.	.	.	.	.	.	16ryy	.	16ryy	.
.	.	.	.	8.Rcc\L	.	16ryy	.	16ryy	.
.	.	.	.	.	.	16ryy	.	16ryy	.
.	.	.	.	.	.	16ryy	.	16ryy	.
.	.	.	.	[16Rcc\Jk	.	16ryy	.	16ryy	.
=8	=8	=8	=8	=8	=8	=8	=8	=8	=8
8.g#XL] 8.a] 8.b-X]	.	8.Rcc\L]	.	8Rcc\L]	.	16ryy	.	16ryy	.
.	.	.	.	.	.	16ryy	4ryy	16ryy	4ryy
.	.	.	.	16Rcc\L	.	16ryy	.	16ryy	.
[16g#Jk [16a [16b-	.	[16Rcc\Jk	.	[16Rcc\JJ	.	16ryy	.	16ryy	.
2g#_ 2a_ 2b-_	.	2Rcc\_	.	16Rcc\KL]	.	16ryy	.	16ryy	.
.	.	.	.	8.Rcc\J	.	16ryy	.	16ryy	.
.	.	.	.	.	.	16ryy	.	16ryy	.
.	.	.	.	.	.	16ryy	.	16ryy	.
.	.	.	.	4Rcc\	.	16ryy	.	16ryy	.
.	.	.	.	.	.	16ryy	.	16ryy	.
.	.	.	.	.	.	16ryy	.	16ryy	.
.	.	.	.	.	.	16ryy	.	16ryy	.
=9	=9	=9	=9	=9	=9	=9	=9	=9	=9
8g#XL] 8a] 8b-X]	.	8Rcc\L]	.	2Rcc\	.	16ryy	4ryy	16ryy	4ryy
.	.	.	.	.	.	16ryy	.	16ryy	.
[8g#J [8a [8b-	.	[8Rcc\J	.	.	.	16ryy	.	16ryy	.
.	.	.	.	.	.	16ryy	.	16ryy	.
2g#] 2a] 2b-]	.	2Rcc\]	.	.	.	16ryy	.	16ryy	.
.	.	.	.	.	.	16ryy	4ryy	16ryy	4ryy
.	.	.	.	.	.	16ryy	.	16ryy	.
.	.	.	.	.	.	16ryy	.	16ryy	.
.	.	.	.	4Rcc\	.	16ryy	.	16ryy	.
.	.	.	.	.	.	16ryy	.	16ryy	.
.	.	.	.	.	.	16ryy	4ryy	16ryy	4ryy
.	.	.	.	.	.	16ryy	.	16ryy	.
=10	=10	=10	=10	=10	=10	=10	=10	=10	=10
[2d#X [2dn [2e	.	[2Rcc\	.	4Rcc\	.	16ryy	.	16ryy	.
.	.	.	.	.	.	16ryy	.	16ryy	.
.	.	.	.	.	.	16ryy	.	16ryy	.
.	.	.	.	.	.	16ryy	.	16ryy	.
.	.	.	.	4Rcc\	.	8ryy	.	8ryy	.
.	.	.	.	.	.	16ryy	4ryy	16ryy	4ryy
.	.	.	.	.	.	16ryy	.	16ryy	.
16d#KL] 16d] 16e]	.	16Rcc\KL]	.	8Rcc\L	.	16ryy	.	16ryy	.
[8.d#J [8.d [8.e	.	[8.Rcc\J	.	.	.	16ryy	.	16ryy	.
.	.	.	.	[8Rcc\J	.	16ryy	.	16ryy	.
.	.	.	.	.	.	16ryy	.	16ryy	.
=||	=||	=||	=||	=||	=||	=||	=||	=||	=||
*-	*-	*-	*-	*-	*-	*-	*-	*-	*-
!!!system-decoration: [(s1,s2)][(s3,s4)][(s5)]
!!!RDF**dynam: > = dim.
